/* XPM */
static char * control_home_xpm[] = {
/* width height ncolors cpp [x_hot y_hot] */
"24 24 6 1 0 0",
/* colors */
" 	s none	m none	c none",
".	s iconColor1	m black	c black",
"X	s iconGray3	m white	c #adadadadadad",
"o	s iconColor2	m white	c white",
"O	s iconColor7	m white	c cyan",
"+	s iconGray1	m white	c #dededededede",
/* pixels */
"                        ",
"   .......              ",
"    .....               ",
"    .XXX.               ",
"    .ooo.               ",
"    .ooo.           ..  ",
"    .ooo.       ....    ",
"    .ooo.   ....XXX.    ",
"    .ooo....XXXXooo.    ",
"    ....XXXXooooooo.    ",
"  ...XXXoo.....oooo.    ",
"    .ooooo.OOO.oooo.    ",
"    .ooooo.OOO.oooo.    ",
"    .ooooo.OOO.oooo.    ",
"    .ooooo.....oooo.    ",
"    .oooooooooooooo.    ",
"    .ooooo.....oooo.    ",
"    .ooooo.XXX.oooo.    ",
"    .ooooo.X++.oooo.    ",
"    .ooooo.X++.oooo.    ",
"    .ooooo.X++.oooo.    ",
"    .ooooo.X++.oooo.    ",
"    ................    ",
"                        "};
