/* XPM */
static char * control_backwards_xpm[] = {
/* width height ncolors cpp [x_hot y_hot] */
"24 24 5 1 0 0",
/* colors */
" 	s none	m none	c none",
".	s iconColor2	m white	c white",
"X	s iconColor7	m white	c cyan",
"o	s iconColor5	m black	c blue",
"O	s iconColor1	m black	c black",
/* pixels */
"                        ",
"                        ",
"                        ",
"        .               ",
"       ..               ",
"      .X.               ",
"     .XX.               ",
"    .XXX................",
"   .XXXXXXXXXXXXXXXXXXX.",
"  .XoXoXoXoXoXoXoXoXoXoO",
" .XoXoXoXoXoXoXoXoXoXoXO",
".XoXoXoXoXoXoXoXoXoXoXoO",
".oXoXoXoXoXoXoXoXoXoXoXO",
" OoXoXoXoXoXoXoXoXoXoXoO",
"  OoXoXoXoXoXoXoXoXoXoXO",
"   OoooooooooooooooooooO",
"    OoooOOOOOOOOOOOOOOOO",
"     OooO               ",
"      OoO               ",
"       OO               ",
"        O               ",
"                        ",
"                        ",
"                        "};
