/* XPM */
static char * control_refresh_xpm[] = {
/* width height ncolors cpp [x_hot y_hot] */
"24 24 7 1 0 0",
/* colors */
" 	s none	m none	c none",
".	s iconColor2	m white	c white",
"X	s iconColor7	m white	c cyan",
"o	s iconColor1	m black	c black",
"O	s iconColor5	m black	c blue",
"+	s iconGray1	m white	c #dededededede",
"@	s iconGray5	m black	c #737373737373",
/* pixels */
"                        ",
"                        ",
"         ......         ",
"       ..XXXXXX..       ",
"      .XXXXXXXXXX.o     ",
"     .XXXXOOOOOOXXOo    ",
"    .XXXOOooooooOO++++  ",
"   .XXXOooo     oo+@@@@ ",
"   .XXOo          +@XOo ",
"  .XXXOo          +@XOo ",
"  .XXOo            +XXOo",
"  .XXOo            .XXOo",
"  .XXOo            .XXOo",
"  .XXOo            .XXOo",
"  .XX+o            .XXOo",
"   .X+@           .XXXOo",
"   .X+@           .XXOo ",
"  ++++@          .XXXOo ",
"   +@@@..      ..XXXOo  ",
"     o.XX......XXXXOo   ",
"      oOXXXXXXXXXXOo    ",
"       oOOXXXXXXOOo     ",
"        ooOOOOOOoo      ",
"          oooooo        "};
