/* XPM */
static char * control_go_xpm[] = {
/* width height ncolors cpp [x_hot y_hot] */
"24 24 6 1 0 0",
/* colors */
" 	s none	m none	c none",
".	s iconColor1	m black	c black",
"X	s iconColor4	m white	c green",
"o	s iconColor2	m white	c white",
"O	s iconColor7	m white	c cyan",
"+	s iconColor5	m black	c blue",
/* pixels */
"  ..     ......         ",
" ..X.....oooooo..       ",
" .XXX..oooOoOoOoo..     ",
" .XX.ooOoOoOoOoo+++.    ",
"  .XX.OoOOOOOOOOO+++.   ",
"  .XXX.OOOOOOOOO+O+++.  ",
"  ..XX.OOOOOOOOOO+O++.  ",
" .oO.XX.OOOOOOOOOO+O++. ",
" .ooO.XX.OO.OOOOOOO+O+. ",
".oOoo.XXX...OOOOOOOO+O+.",
".ooOOO.XXXX.OOOOOOOOO++.",
".oOoOOO.XXX.OOOOOOOO+O+.",
".ooOOOO.XXX.OOOOOOOOO++.",
".oOoOO......OOOOOOOO+O+.",
".ooOOOOOOOOOOOOOOOOOO++.",
" .ooOOOOOOOOOOOOOOOO++. ",
" .oOoOOOOOOOOOOOOOO+O+. ",
"  .oOoOOOOOOOOOOOOO++.  ",
"  .ooOoOOOOOOOOOOO+O+.  ",
"   .o+O+O+OOOOO+O+O+.   ",
"    .++O+O+O+O+O+++.    ",
"     ..+++O+O+O++..     ",
"       ..++++++..       ",
"         ......         "};
