/* XPM */
static char * control_refresh__xpm[] = {
/* width height ncolors cpp [x_hot y_hot] */
"24 24 3 1 0 0",
/* colors */
" 	s none	m none	c none",
".	s iconColor1	m black	c black",
"X	s iconColor4	m white	c green",
/* pixels */
"                        ",
"                        ",
"                        ",
"         ......         ",
"       ..XXXXXX..       ",
"      .XXXXXXXXXX.      ",
"     .XXXX....XXXX.     ",
"    .XXX..    ....      ",
"    .XX.                ",
"   .XXX.          ..    ",
"....XX....       .XX.   ",
" .XXXXXX.       .XXXX.  ",
"  .XXXX.       .XXXXXX. ",
"   .XX.       ....XX....",
"    ..          .XXX.   ",
"                .XX.    ",
"      ....    ..XXX.    ",
"     .XXXX....XXXX.     ",
"      .XXXXXXXXXX.      ",
"       ..XXXXXX..       ",
"         ......         ",
"                        ",
"                        ",
"                        "};
