/* XPM */
static char * arrow_fowards[] = {
/* width height ncolors cpp [x_hot y_hot] */
"24 24 5 1 0 0",
/* colors */
" 	s none	m none	c none",
".	s iconColor2	m white	c white",
"X	s iconColor1	m black	c black",
"o	s iconColor7	m white	c cyan",
"O	s iconColor5	m black	c blue",
/* pixels */
"                        ",
"                        ",
"                        ",
"               .        ",
"               .X       ",
"               .oX      ",
"               .ooX     ",
"................oooX    ",
".oooooooooooooooooooX   ",
".OoOoOoOoOoOoOoOoOoOoX  ",
".oOoOoOoOoOoOoOoOoOoOoX ",
".OoOoOoOoOoOoOoOoOoOoOoX",
".oOoOoOoOoOoOoOoOoOoOoOX",
".OoOoOoOoOoOoOoOoOoOoOX ",
".oOoOoOoOoOoOoOoOoOoOX  ",
".OOOOOOOOOOOOOOOOOOOX   ",
".XXXXXXXXXXXXXXXOOOX    ",
"               XOOX     ",
"               XOX      ",
"               XX       ",
"               X        ",
"                        ",
"                        ",
"                        "};
