/* XPM */
static char * globeish_xpm[] = {
/* width height ncolors cpp [x_hot y_hot] */
"24 24 5 1 0 0",
/* colors */
" 	s none	m none	c none",
".	s iconColor1	m black	c black",
"X	s iconColor2	m white	c white",
"o	s iconColor7	m white	c cyan",
"O	s iconColor5	m black	c blue",
/* pixels */
"         ......         ",
"       ..XXXXXX..       ",
"     ..XXXoXoXoXX..     ",
"    .XXoXoXoXoXXOOO.    ",
"   .XXoXoooooooooOOO.   ",
"  .XXoXoooooooooOoOOO.  ",
"  .XoXoooooooooooOoOO.  ",
" .XoXoooooooooooooOoOO. ",
" .XXoooooooooooooooOoO. ",
".XoXXoooooooooooooooOoO.",
".XXooooooooooooooooooOO.",
".XoXooooooooooooooooOoO.",
".XXooooooooooooooooooOO.",
".XoXooooooooooooooooOoO.",
".XXooooooooooooooooooOO.",
" .XXooooooooooooooooOO. ",
" .XoXooooooooooooooOoO. ",
"  .XoXoooooooooooooOO.  ",
"  .XXoXoooooooooooOoO.  ",
"   .XOoOoOoooooOoOoO.   ",
"    .OOoOoOoOoOoOOO.    ",
"     ..OOOoOoOoOO..     ",
"       ..OOOOOO..       ",
"         ......         "};
